svgs/sharp-solid/up-to-dotted-line.svg

<svg xmlns="http://www.w3.org/2000/svg" viewBox="0 0 448 512"><!--! Font Awesome Pro 6.6.0 by @fontawesome - https://fontawesome.com License - https://fontawesome.com/license (Commercial License) Copyright 2024 Fonticons, Inc. --><path d="M64 32l0 64L0 96 0 32l64 0zm96 0l0 64L96 96l0-64 64 0zm32 0l64 0 0 64-64 0 0-64zm160 0l0 64-64 0 0-64 64 0zm32 0l64 0 0 64-64 0 0-64zM64 288L224 128 384 288l0 32-96 0 0 160-128 0 0-160-96 0 0-32z"/></svg>

<svg xmlns="http://www.w3.org/2000/svg" viewBox="0 0 448 512"><!--! Font Awesome Pro 6.4.2 by @fontawesome - https://fontawesome.com License - https://fontawesome.com/license (Commercial License) Copyright 2023 Fonticons, Inc. --><path d="M64 32V96H0V32H64zm96 0V96H96V32h64zm32 0h64V96H192V32zm160 0V96H288V32h64zm32 0h64V96H384V32zM64 288L224 128 384 288v32H288V480H160V320H64V288z"/></svg>
